X:52
T:Golden Slippers
C:Traditional
M:4/4
L:1/8
Q:1/8=520
K:D
de|:f2f2 fede|f2f2 f2de|f2f2 fede|f2e2 e2cd|
e2e2 edcd|e2e2 e2cd|e2g2 f2e2|1 e2d2 d2de:|2 e2d2 d2cB |
|:A6d2|f2e2 d2A2|B6e2|g2f2 e2d2|
c2c2 cBcd|e4 A4|d3c d2e2|f4 a4:|
e4 g4|f3g f2e2|d8|
